X:1
T:Adopted
T:John Robson Sweney
T:Adopted
T:Public Domain
T:Public Domain
C:John Robson Sweney
Z:Public Domain
%%score ( 1 2 ) ( 3 4 )
L:1/8
M:3/4
K:Eb
V:1 treble 
V:2 treble 
V:3 bass 
V:4 bass 
V:1
 [EG]2 [EG]2 [EG]2 | [EG]3 [EF] E2 | [EB]2 [EB]2 [EB]2 | [DB]2 [DA]4 | [FA]2 [FA]2 [FA]2 | %5
w: 1.~O what a|bless- ing, how|I ex- press|it? Out|of the full-|
w: 2.~O what a|Fa- ther, how|der- ly gra-|cious, O|what a Sav-|
w: 3.~O the un-|search- a- ble|es He giv-|eth, Rich-|es in- creas-|
w: 4.~When I have|fin- ished the|He ap- points|me, When|I have end-|
 [FA]3 [EG] [DF]2 | [Ac]2 [GB]2 [^F=A]2 | [GB]6 | [Ge]2 [Ge]2 [Ge]2 | [Ge]3 [Bd] [Ac]2 | %10
w: ness of rap-|ture I sing,|Now|by the Fa-|ther re- ceived|
w: ior to make|me His care;|Tho’|I have slight-|ed, re- ject-|
w: ing from day|un- to day;|Trea-|sures in val-|ue all o-|
w: ed my jour-|ney be- low,|Then|to my Fa-|ther and Je-|
 [GB]2 [Ac]2 [GB]2 | [GB]2 [EG]4 | [DF]2 [EG]2 [FA]2 | [GB]3 [FA] [EG]2 | [DF]2 [DG]2 [DF]2 | E6 || %16
w: and a- dopt-|ed, I|am a child|and an heir|of a king.||
w: ed, and grieved|Him, Still|He per- mits|me His king-|dom to share.|I|
w: thers ex- cell-|ing, Trea-|sures that ne-|ver will rust|nor de- cay.||
w: sus my Sav-|ior, Home|to a beau-|ti- ful pal-|ace I go.||
"^Refrain" [DF]2 [DF]2 [EG]2 | [FA]3 [=EG] [FA]2 | [Ac]2 [GB]2 [^F=A]2 | [GB]6 | %20
w: ||||
w: a- dopt- ed,|O won- der-|ful love, Heir|to|
w: ||||
w: ||||
 [GB]2 [^F=A]2 [GB]2 | [Ge]3 [Bd] [Ac]2 | [Ac]2 [GB]2 [EG]2 | [DF]6 | [EG]2 [DG]2 [DF]2 | E4 E2 | %26
w: ||||||
w: a her- i-|tage pur- chased|a- bove; Tell|it,|my soul, and|joy- ful-|
w: ||||||
w: ||||||
 [Ec]2 [Ec]2 [Ec]2 | [EB]6 | [Ad]2 [Ac]2 [Ac]2 | [Ge]2 [EB]2 [FA]2 | [EG]2 [DG]2 [DF]2 | E6 |] %32
w: ||||||
w: I am a|child|and an heir|of a king.|||
w: ||||||
w: ||||||
V:2
 x6 | x4 E2 | x6 | x6 | x6 | x6 | x6 | x6 | x6 | x6 | x6 | x6 | x6 | x6 | x6 | E6 || x6 | x6 | x6 | %19
w: |can||||||||||||||||||
w: |ten-||||||||||||||am||||
w: |rich-||||||||||||||||||
w: |work||||||||||||||||||
 x6 | x6 | x6 | x6 | x6 | x6 | E4 E2 | x6 | x6 | x6 | x6 | x6 | E6 |] %32
w: |||||||||||||
w: ||||||ly sing,|||||||
w: |||||||||||||
w: |||||||||||||
V:3
 [E,B,]2 [E,B,]2 [E,B,]2 | [E,B,]3 [E,A,] [E,G,]2 | [G,B,]2 [G,B,]2 [G,B,]2 | [F,B,]2 [F,B,]4 | %4
 [B,D]2 [B,D]2 [B,D]2 | B,3 B, B,2 | [E,E]2 [E,E]2 [E,E]2 | [E,E]6 | [E,B,]2 [E,B,]2 [E,B,]2 | %9
 [E,B,]3 [E,E] [E,E]2 | [E,E]2 [E,E]2 [E,E]2 | [E,E]2 [E,B,]4 | [B,,B,]2 [B,,B,]2 [B,,B,]2 | %13
 [B,,B,]3 [B,,B,] [B,,B,]2 | [B,,A,]2 [B,,B,]2 [B,,A,]2 | [E,G,]6 || [B,,B,]2 [B,,B,]2 [B,,B,]2 | %17
 [B,,D]3 [B,,^C] [B,,D]2 | [E,E]2 [E,E]2 [E,E]2 | [E,E]6 | [E,E]2 [E,E]2 [E,E]2 | %21
 [E,B,]3 [E,E] [E,E]2 | [E,E]2 [E,E]2 [E,B,]2 | [B,,B,]6 | [E,B,]2 [B,,B,]2 [B,,A,]2 | %25
 [C,G,]4 [C,G,]2 | [A,,A,]2 A,2 A,2 | [G,B,]6 | [F,B,]2 [F,B,]2 [F,B,]2 | [E,B,]2 [G,B,]2 [A,C]2 | %30
 B,2 [B,,B,]2 [B,,A,]2 | [E,G,]6 |] %32
V:4
 x6 | x6 | x6 | x6 | x6 | B,3 B, B,2 | x6 | x6 | x6 | x6 | x6 | x6 | x6 | x6 | x6 | x6 || x6 | x6 | %18
 x6 | x6 | x6 | x6 | x6 | x6 | x6 | x6 | x2 A,2 A,2 | x6 | x6 | x6 | B,2 x4 | x6 |] %32

